X:1
T:Igelkotten
C:Lisa Klevebrant
C:Erik Ronström
R:Polska
D:Krack "Krack" (Sandkvie Records 2004)
Z:ABC-transkribering av Erik Ronström, nov 2010
M:3/4
L:1/16
K:G
D2 c4 BA B2G2|A3B c2e2 d4|D2 c4 BA B2G2|EFGE FGAF D4|
D2 c4 BA B2G2|D2 c4 BA B2d2|e3f g2e2 d2B2|A2GF G8:|
|:EGBG EGBG EGBG|DGBG DGBG DGBG|EGBG EGBG EGBG|DGAG DGAG DFAF|
EGBG EGBG EGBG|DGBG DGBG D2B2|c3d e2c2 B2G2|A2GF G8:|

